icons/svg/paint-bucket-accent.svg

<svg width="24" height="24" viewBox="0 0 24 24" fill="none" xmlns="http://www.w3.org/2000/svg">
<path d="M18.6766 13.3499L16.7536 16.5198C15.7689 18.6124 18.0679 20.7264 20.0707 19.5701C21.2001 18.918 21.587 17.4739 20.935 16.3446L18.6766 13.3499Z" fill="currentColor"/>
<path d="M11.3522 14.9278L15.75 10.53L2.74828 10.53C2.74828 10.7673 2.7854 11.0047 2.85964 11.2332C3.02845 11.7527 3.479 12.2033 4.38009 13.1043L6.20357 14.9278C7.10466 15.8289 7.55521 16.2795 8.07475 16.4483C8.53175 16.5968 9.02403 16.5968 9.48102 16.4483C10.0006 16.2795 10.4511 15.8289 11.3522 14.9278Z" fill="currentColor"/>
</svg>

<svg xmlns="http://www.w3.org/2000/svg" width="24" height="24" fill="none" viewBox="0 0 24 24"><path fill="currentColor" d="m18.677 13.35-1.923 3.17c-.985 2.092 1.314 4.206 3.317 3.05a2.36 2.36 0 0 0 .864-3.225zm-7.325 1.578 4.398-4.398H2.748c0 .237.037.475.112.703.168.52.619.97 1.52 1.871l1.824 1.824c.9.9 1.351 1.351 1.87 1.52.458.149.95.149 1.407 0 .52-.169.97-.62 1.871-1.52"/></svg>
